icons/solid/clock.svg

<svg width="24" height="24" viewBox="0 0 24 24" fill="none" xmlns="http://www.w3.org/2000/svg">
<path fill-rule="evenodd" clip-rule="evenodd" d="M2 12C2 6.47715 6.47715 2 12 2C17.5228 2 22 6.47715 22 12C22 17.5228 17.5228 22 12 22C6.47715 22 2 17.5228 2 12ZM13 7C13 6.44772 12.5523 6 12 6C11.4477 6 11 6.44772 11 7V10.7639C11 11.9002 11.642 12.939 12.6584 13.4472L15.5528 14.8944C16.0468 15.1414 16.6474 14.9412 16.8944 14.4472C17.1414 13.9532 16.9412 13.3526 16.4472 13.1056L13.5528 11.6584C13.214 11.489 13 11.1427 13 10.7639V7Z" fill="currentColor"/>
</svg>

<svg width="24" height="24" fill="none" xmlns="http://www.w3.org/2000/svg"><path fill-rule="evenodd" clip-rule="evenodd" d="M2 12C2 6.477 6.477 2 12 2s10 4.477 10 10-4.477 10-10 10S2 17.523 2 12zm11-5a1 1 0 10-2 0v3.764a3 3 0 001.658 2.683l2.895 1.447a1 1 0 10.894-1.788l-2.894-1.448a1 1 0 01-.553-.894V7z" fill="currentColor"/></svg>
